!!!!SEGMENT: pl-kk--kk-i-327_costanzi-giovanni-battista--alma-redemptoris-mater.krn
!!!id: 17xx:1919
!!!COM: Costanzi, Giovanni Battista
!!!COM-rism: pe20000434
!!!CDT: 1704-1778
!!!CNT: Italian
!!!OTL: Alma redemptoris mater
!!!PDT:
!!!SMS-siglum: PL-Kk
!!!SMS-shelfmark: Kk.I.327
!!!NIFC-rismID: 1001143617
!!!URL-scan: http://repozytorium.nifc.pl/skany/pl-kk-nut--i-327
!!!ONB-nifc:
!!!SMS-variant:
!!!SMS-altvar:
**kern	**fba	**kern	**text	**kern	**text	**kern	**text	**kern	**text	**kern	**text	**kern	**text	**kern	**text
*part8	*	*part7	*part7	*part5	*part5	*part4	*part4	*part2	*part2	*part6	*part6	*part3	*part3	*part1	*part1
*	*	*group2	*	*group2	*	*group2	*	*group2	*	*group1	*	*group1	*	*group1	*
*staff8	*	*staff7	*staff7	*staff5	*staff5	*staff4	*staff4	*staff2	*staff2	*staff6	*staff6	*staff3	*staff3	*staff1	*staff1
*[Organo	*	*I"Baſso di ripieno =	*	*I"Tenore di ripieno=	*	*I"Alto di ripieno_	*	*I"Canto di ripieno	*	*I"Baſso à 3.e di Concerto=	*	*I"Alto di Concerto à 3.e	*	*I"Canto à 3.e di Concerto=	*
*I'org	*	*I'B rip	*	*I'T rip	*	*I'A rip	*	*I'S rip	*	*I'B conc	*	*I'A conc	*	*I'S conc	*
*clefF4	*	*clefF4	*	*clefC4	*	*clefC3	*	*clefC1	*	*clefF4	*	*clefC3	*	*clefC1	*
*k[e-b-]	*	*k[e-b-]	*	*k[b-e-]	*	*k[e-b-]	*	*k[b-e-]	*	*k[e-b-]	*	*k[b-e-]	*	*k[b-e-]	*
*M4/4	*	*M4/4	*	*M4/4	*	*M4/4	*	*M4/4	*	*M4/4	*	*M4/4	*	*M4/4	*
*met(c)	*	*met(c)	*	*met(c)	*	*met(c)	*	*met(c)	*	*met(c)	*	*met(c)	*	*met(c)	*
=1	=1	=1	=1	=1	=1	=1	=1	=1	=1	=1	=1	=1	=1	=1	=1
*all\right	*	*all\right	*	*all\right	*	*all\right	*	*all\right	*	*all\right	*	*all\right	*	*all\right	*
!	!	!	!	!LO:TX:a:t=P:problem:znaki B- E-	!	!	!	!	!	!LO:TX:a:t=a 3.e	!	!LO:TX:a:t=a 3.e	!	!	!
!LO:TX:a:t=à 3.e	!	!LO:TX:a:t=10	!	!LO:TX:a:t=10	!	!LO:TX:b:t=10	!	!LO:TX:b:t=10	!	!LO:TX:b:t=4	!	!LO:TX:b:t=1	!	!	!
!LO:TX:a:t=Moderato\nAlma redemptoriſ	!	!LO:TX:a:t=Moderato	!	!LO:TX:a:t=Moderato	!	!LO:TX:b:t=Moderato	!	!LO:TX:a:t=Moderato\nAlma	!	!LO:TX:a:t=Moderato	!	!LO:TX:a:t=Moderato	!	!LO:TX:a:t=Moderato	!
4B-\	.	00r	.	00r	.	00r	.	00r	.	00r	.	1r	.	8dd\	Al-
.	.	.	.	.	.	.	.	.	.	.	.	.	.	16cc\LL	-ma
.	.	.	.	.	.	.	.	.	.	.	.	.	.	16b-\JJ	.
4E-\	5	.	.	.	.	.	.	.	.	.	.	.	.	8b-\	re-
.	.	.	.	.	.	.	.	.	.	.	.	.	.	8b-\	-dem-
4D\	.	.	.	.	.	.	.	.	.	.	.	.	.	8.b-\L	-pto-
.	.	.	.	.	.	.	.	.	.	.	.	.	.	16dd\Jk	.
4C\	n6	.	.	.	.	.	.	.	.	.	.	.	.	4ee-\	-ris
!	!	!	!	!	!	!	!	!	!	!	!	!	!	!LO:LB:g=original	!
=2	=2	=2	=2	=2	=2	=2	=2	=2	=2	=2	=2	=2	=2	=2	=2
.	.	.	.	.	.	.	.	.	.	.	.	.	.	8qqee-/	.
8BB-\L	.	.	.	.	.	.	.	.	.	.	.	2r	.	8dd\	re-
8C\	.	.	.	.	.	.	.	.	.	.	.	.	.	16cc\LL	-dem-
.	.	.	.	.	.	.	.	.	.	.	.	.	.	16b-\JJ	.
8D\	.	.	.	.	.	.	.	.	.	.	.	.	.	8cc\	-pto-
8E-\J	.	.	.	.	.	.	.	.	.	.	.	.	.	16b-\LL	-ris
.	.	.	.	.	.	.	.	.	.	.	.	.	.	16a\JJ	.
*	*	*	*	*	*	*	*	*	*	*	*	*2\right	*	*	*
!LO:TX:t=P:problem:mixed beam	!	!	!	!	!	!	!	!	!	!	!	!	!	!	!
8BB-/L	.	.	.	.	.	.	.	.	.	.	.	2b-\	Quae	8.b-\L	ma-
8B-\	.	.	.	.	.	.	.	.	.	.	.	.	.	.	.
.	.	.	.	.	.	.	.	.	.	.	.	.	.	32a\LL	.
.	.	.	.	.	.	.	.	.	.	.	.	.	.	32b-\JJJ	.
8B-\	.	.	.	.	.	.	.	.	.	.	.	.	.	4f/	-ter
8B-\J	.	.	.	.	.	.	.	.	.	.	.	.	.	.	.
!LO:LB:g=original	!	!	!	!	!	!	!	!	!	!	!	!	!	!	!
=3	=3	=3	=3	=3	=3	=3	=3	=3	=3	=3	=3	=3	=3	=3	=3
!	!	!	!	!	!	!	!	!	!	!	!	!	!	!LO:TX:b:t=1	!
8A\L	.	.	.	.	.	.	.	.	.	.	.	4cc\	per-	1r	.
8A\	.	.	.	.	.	.	.	.	.	.	.	.	.	.	.
8A\	.	.	.	.	.	.	.	.	.	.	.	8a\	-vi-	.	.
8A\J	.	.	.	.	.	.	.	.	.	.	.	8f\	-a	.	.
!	!	!	!	!	!	!	!	!	!	!	!	!LO:LB:g=original	!	!	!
8G\L	.	.	.	.	.	.	.	.	.	.	.	8.g\L	cae-	.	.
8G\	.	.	.	.	.	.	.	.	.	.	.	.	.	.	.
.	.	.	.	.	.	.	.	.	.	.	.	16a\Jk	.	.	.
8C\	n3	.	.	.	.	.	.	.	.	.	.	4g\	-li	.	.
8C\J	.	.	.	.	.	.	.	.	.	.	.	.	.	.	.
=4	=4	=4	=4	=4	=4	=4	=4	=4	=4	=4	=4	=4	=4	=4	=4
8F\L	.	.	.	.	.	.	.	.	.	.	.	8.a\L	por-	8.cc\L	por-
8F\	.	.	.	.	.	.	.	.	.	.	.	.	.	.	.
.	.	.	.	.	.	.	.	.	.	.	.	16b-\Jk	.	16dd\Jk	.
8F\	.	.	.	.	.	.	.	.	.	.	.	8a\	-ta	4cc\	-ta
8F\J	.	.	.	.	.	.	.	.	.	.	.	8r	.	.	.
!	!	!	!	!	!	!	!	!	!	!	!	!	!	!LO:LB:g=original	!
8F\L	6 4	.	.	.	.	.	.	.	.	.	.	8.b-\L	ma-	8.dd\L	ma-
8F\	.	.	.	.	.	.	.	.	.	.	.	.	.	.	.
.	.	.	.	.	.	.	.	.	.	.	.	16cc\Jk	.	16ee-\Jk	.
8F\	.	.	.	.	.	.	.	.	.	.	.	8b-\	-neſ	8dd\	-neſ
8F\J	.	.	.	.	.	.	.	.	.	.	.	8b-\	et	8dd\	et
=5	=5	=5	=5	=5	=5	=5	=5	=5	=5	=5	=5	=5	=5	=5	=5
8F\L	n7 -4	00r	.	00r	.	00r	.	00r	.	2r	.	4b-\	Stel-	4een\	Stel-
8F\	.	.	.	.	.	.	.	.	.	.	.	.	.	.	.
8F\	.	.	.	.	.	.	.	.	.	.	.	4b-\	la	4ee\	-la
8F\J	.	.	.	.	.	.	.	.	.	.	.	.	.	.	.
!LO:LB:g=original	!	!	!	!	!	!	!	!	!	!	!	!LO:LB:g=original	!	!	!
8F\L	5 3	.	.	.	.	.	.	.	.	4r	.	8.a\L	ma-	8.ff\L	ma-
8F\	.	.	.	.	.	.	.	.	.	.	.	.	.	.	.
.	.	.	.	.	.	.	.	.	.	.	.	16g\Jk	.	32een\LL	.
.	.	.	.	.	.	.	.	.	.	.	.	.	.	32dd\JJJ	.
8F\	.	.	.	.	.	.	.	.	.	8r	.	4a\	-riſ	4cc\	-riſ
8C\J	n3	.	.	.	.	.	.	.	.	8C/	Suc-	.	.	.	.
!	!	!	!	!	!	!	!	!	!	!LO:LB:g=original	!	!	!	!	!
=6	=6	=6	=6	=6	=6	=6	=6	=6	=6	=6	=6	=6	=6	=6	=6
8F\L	.	.	.	.	.	.	.	.	.	(8F\L	-cur-	2r	.	4r	.
8A\	.	.	.	.	.	.	.	.	.	8A\J)	.	.	.	.	.
8G\	n6	.	.	.	.	.	.	.	.	8G\	-re	.	.	8r	.
8B-\J	.	.	.	.	.	.	.	.	.	8B-\	ca-	.	.	8een\	Suc-
!	!	!	!	!	!	!	!	!	!	!	!	!	!	!LO:LB:g=original	!
8A\L	.	.	.	.	.	.	.	.	.	8A\L	-den-	4r	.	8ff\L	-cur-
8G\	.	.	.	.	.	.	.	.	.	8G\J	.	.	.	8cc\J	.
8F\	.	.	.	.	.	.	.	.	.	8F\	-ti	8r	.	8cc\	-re
8C\J	n3	.	.	.	.	.	.	.	.	8C/	Suc-	8g\	Suc-	8cc\	ca-
=7	=7	=7	=7	=7	=7	=7	=7	=7	=7	=7	=7	=7	=7	=7	=7
8F\L	.	.	.	.	.	.	.	.	.	(8F\L	-cur-	8a\L	-cur-	16a\LL	-den-
.	.	.	.	.	.	.	.	.	.	.	.	.	.	16b-\JJ	.
8A\	.	.	.	.	.	.	.	.	.	8A\J)	.	8f\J	.	8cc\	-ti
8G\	n6	.	.	.	.	.	.	.	.	8G\	-re	8en\	-re	8r	.
!	!	!	!	!	!	!	!	!	!	!	!	!	!	!LO:SIC:s:v=een	!
8B-\J	.	.	.	.	.	.	.	.	.	8B-\	ca-	8g\	ca-	8ee-\	Suc-
!	!	!	!	!	!	!	!	!	!	!	!	!LO:LB:g=original	!	!	!
8A\L	.	.	.	.	.	.	.	.	.	8.A\L	-den-	4.a\	-den-	8ff\L	-cur-
8G\	.	.	.	.	.	.	.	.	.	.	.	.	.	8cc\J	.
.	.	.	.	.	.	.	.	.	.	16G\Jk	.	.	.	.	.
8F\	.	.	.	.	.	.	.	.	.	4F\	-ti	.	.	8cc\	-re
8F\J	.	.	.	.	.	.	.	.	.	.	.	8g\	.	8b-\	ca-
!LO:LB:g=original	!	!	!	!	!	!	!	!	!	!	!	!	!	!LO:LB:g=original	!
=8	=8	=8	=8	=8	=8	=8	=8	=8	=8	=8	=8	=8	=8	=8	=8
8F\L	.	.	.	.	.	.	.	.	.	4r	.	8.f\L	.	8.a\L	-den-
8F\	.	.	.	.	.	.	.	.	.	.	.	.	.	.	.
.	.	.	.	.	.	.	.	.	.	.	.	16g\Jk	.	16b-\Jk	.
8F\	.	.	.	.	.	.	.	.	.	8r	.	4a\	-ti	4cc\	-ti
8F\J	.	.	.	.	.	.	.	.	.	8F\	suc-	.	.	.	.
!	!	!	!	!	!	!	!	!	!	!LO:LB:g=original	!	!	!	!	!
8En\L	.	.	.	.	.	.	.	.	.	8En\	-cur-	4r	.	4r	.
8F\J	.	.	.	.	.	.	.	.	.	8F\	-re	.	.	.	.
4C\	n3	.	.	.	.	.	.	.	.	4r	.	4en\	Suc-	4b-\	Suc-
=9	=9	=9	=9	=9	=9	=9	=9	=9	=9	=9	=9	=9	=9	=9	=9
8F\L	.	0r	.	0r	.	0r	.	0r	.	4r	.	8.f\L	-cur-	8.a\L	-cur-
8F\	.	.	.	.	.	.	.	.	.	.	.	.	.	.	.
.	.	.	.	.	.	.	.	.	.	.	.	16g\Jk	.	16b-\Jk	.
8F\	.	.	.	.	.	.	.	.	.	8r	.	4a\	-re	4cc\	-re
8F\J	.	.	.	.	.	.	.	.	.	8F\	suc-	.	.	.	.
8En\L	.	.	.	.	.	.	.	.	.	8En\	-cur-	2a\	ca-	8r	.
8F\J	.	.	.	.	.	.	.	.	.	8F\	-re	.	.	8cc\L	ca-
4FF/	.	.	.	.	.	.	.	.	.	4F\	ca-	.	.	8ff\	.
.	.	.	.	.	.	.	.	.	.	.	.	.	.	8cc\J	.
!LO:LB:g=original	!	!	!	!	!	!	!	!	!	!	!	!LO:LB:g=original	!	!LO:LB:g=original	!
=10	=10	=10	=10	=10	=10	=10	=10	=10	=10	=10	=10	=10	=10	=10	=10
*	*below	*	*	*	*	*	*	*	*	*2\right	*	*	*	*	*
2BB-/	.	.	.	.	.	.	.	.	.	2B-\	-den-	4b-\	-den-	4dd\	-den-
.	.	.	.	.	.	.	.	.	.	.	.	8a\L	.	8cc\L	.
.	.	.	.	.	.	.	.	.	.	.	.	8g\J	.	8b-\J	.
2C/	4	.	.	.	.	.	.	.	.	2c\	.	8.f\L	.	8.a\L	.
.	.	.	.	.	.	.	.	.	.	.	.	16g\Jk	.	16b-\Jk	.
.	n3	.	.	.	.	.	.	.	.	.	.	4en\	.	4g\	.
!	!	!	!	!	!	!	!	!	!	!LO:LB:g=original	!	!	!	!	!
=11	=11	=11	=11	=11	=11	=11	=11	=11	=11	=11	=11	=11	=11	=11	=11
!LO:TX:a:t=tutti	!	!	!	!	!	!	!	!	!	!LO:N:vis=4	!	!	!	!	!
4F\	.	8.F\	Sur-	8.f\	Sur-	8.a\	Sur-	8.cc\	Sur-	8F/	-ti	8f\	-ti	8f/	-ti
!	!	!	!	!	!	!	!	!	!	!	!	!LO:TX:t=P:problem:rytm, skreślone dźwięki	!	!LO:TX:t=P:problem:rytm, skreślone dźwięki	!
!	!	!	!	!	!	!	!	!	!	!LO:TX:a:t=tutti	!	!LO:TX:a:t=tutti	!	!LO:TX:a:t=tutti	!
!	!	!	!	!	!	!	!	!	!	!LO:N:vis=8.	!	!LO:N:vis=8.	!	!LO:N:vis=8.	!
.	.	.	.	.	.	.	.	.	.	16F\	Sur-	16a\	Sur-	16cc\	Sur-
.	.	16F\	-ge-	16f\	-ge-	16a\	-ge-	16cc\	-ge-	16F\	-ge-	16a\	-ge-	16cc\	-ge-
4F\	.	4F\	-re	4f\	-re	4a\	-re	4cc\	-re	4F\	-re	4a\	-re	4cc\	-re
*	*above	*	*	*	*	*	*	*	*	*	*	*	*	*	*
4F\	6 4	4.F\	Sur-	4.f\	Sur-	4.b-\	Sur-	4.dd\	Sur-	4.F\	Sur-	4.b-\	Sur-	4.dd\	Sur-
4F\	.	.	.	.	.	.	.	.	.	.	.	.	.	.	.
.	.	8F\	-ge-	8f\	-ge-	8b-\	-ge-	8dd\	-ge-	8F\	-ge-	8b-\	-ge-	8dd\	-ge-
!	!	!LO:LB:g=original	!	!LO:LB:g=original	!	!LO:LB:g=original	!	!	!	!	!	!LO:LB:g=original	!	!	!
=12	=12	=12	=12	=12	=12	=12	=12	=12	=12	=12	=12	=12	=12	=12	=12
4F\	5 3	4F\	-re	4.f\	-re	4a\	-re	4cc\	-re	4F\	-re	4a\	-re	4cc\	-re
4F\	.	4F\	qui	.	.	4a\	qui	4ff\	qui	4F\	qui	4a\	qui	4ff\	qui
.	.	.	.	8c\	qui	.	.	.	.	.	.	.	.	.	.
!	!	!	!	!	!	!	!	!LO:LB:g=original	!	!	!	!	!	!LO:LB:g=original	!
*2\right	*below	*2\right	*	*2\right	*	*2\right	*	*2\right	*	*	*	*	*	*2\right	*
2F#X\	-7 5	2F#X\	cu-	2c\	cu-	2a\	cu-	2ee-X\	cu-	2F#X\	cu-	2a\	cu-	2ee-X\	cu-
!LO:LB:g=original	!	!	!	!	!	!	!	!	!	!	!	!	!	!	!
=13	=13	=13	=13	=13	=13	=13	=13	=13	=13	=13	=13	=13	=13	=13	=13
*	*above	*	*	*	*	*	*	*	*	*	*	*	*	*	*
4G\	-3	4G\	-rat	4B-X\	-rat	4g\	-ra	4dd\	-rat	4G\	-rat	4g\	-rat	4dd\	-rat
4G\	.	4G\	qui	4B-\	qui	4g\	qui	4dd\	qui	4G\	qui	4g\	qui	4dd\	qui
*	*below	*	*	*	*	*	*	*	*	*	*	*	*	*	*
4c\	-3	4c\	cu-	4c\	cu-	4g\	cu-	4ee-\	cu-	4c\	cu-	4g\	cu-	4ee-\	cu-
4G\	.	4G\	-rat	4B-\	-rat	4g\	-rat	4dd\	-rat	4G\	-rat	4g\	-rat	4dd\	-rat
!	!	!	!	!	!	!	!	!	!	!LO:LB:g=original	!	!	!	!	!
=14	=14	=14	=14	=14	=14	=14	=14	=14	=14	=14	=14	=14	=14	=14	=14
4A\	.	4A\	po-	4.A\	po-	4g\	po-	4.cc\	po-	4A\	po-	4g\	po-	4.cc\	po-
*	*above	*	*	*	*	*	*	*	*	*	*	*	*	*	*
4D\	#3	4D\	-pu-	.	.	4f#X\	-pu-	.	.	4D\	-pu-	4f#X\	-pu-	.	.
.	.	.	.	8d\	-pu-	.	.	16dd\LL	-pu-	.	.	.	.	16dd\LL	-pu-
.	.	.	.	.	.	.	.	16cc\JJ	.	.	.	.	.	16cc\JJ	.
2G\	.	2G\	-lo	4d\	-lo	4g\	-lo	4b-\	-lo	2G\	-lo	4g\	-lo	4b-\	-lo
.	.	.	.	4r	.	4r	.	[4dd\	tu	.	.	4r	.	[4dd\	tu
!	!	!	!	!LO:LB:g=original	!	!LO:LB:g=original	!	!	!	!	!	!LO:LB:g=original	!	!	!
=15	=15	=15	=15	=15	=15	=15	=15	=15	=15	=15	=15	=15	=15	=15	=15
2B-\	6	2r	.	4r	.	2g\	na-	8dd\]	.	2r	.	2g\	na-	8dd\]	.
.	.	.	.	.	.	.	.	8b-\	quae	.	.	.	.	8b-\	quae
.	.	.	.	[<4g\	tu	.	.	8g\	ge-	.	.	.	.	8g\	ge-
.	.	.	.	.	.	.	.	8dd\	-nu-	.	.	.	.	8dd\	-nu-
!	!	!	!	!	!	!	!	!LO:LB:g=original	!	!	!	!	!	!LO:LB:g=original	!
*	*below	*	*	*	*	*	*	*	*	*	*	*	*	*	*
2c\	-3	2c\	na-	8g\]	.	2cc\	-tu-	8ee-X\	-i-	2c\	na-	2cc\	-tu-	8ee-X\	-i-
.	.	.	.	8e-X\	quae	.	.	8cc\	-sti	.	.	.	.	8cc\	-sti
.	.	.	.	8c\	ge-	.	.	8r	.	.	.	.	.	8r	.
.	.	.	.	8e-\	-nu-	.	.	8cc\	na-	.	.	.	.	8cc\	na-
!LO:LB:g=original	!	!LO:LB:g=original	!	!	!	!	!	!	!	!	!	!	!	!	!
=16	=16	=16	=16	=16	=16	=16	=16	=16	=16	=16	=16	=16	=16	=16	=16
2F\	n3	2F\	-tu-	8f\	-i-	4.an\	-ra	8cc\L	-tu-	2F\	-tu-	4.an\	-ra	8cc\L	-tu-
.	.	.	.	8f\	-sti	.	.	8an\J	.	.	.	.	.	8an\J	.
.	.	.	.	4f\	na-	.	.	8fn\	-ra	.	.	.	.	8f\	-ra
.	.	.	.	.	.	8a\	mi-	8cc\	mi-	.	.	8a\	mi-	8cc\	mi-
4B-\	.	4B-\	-ra	8f\L	-tu-	8a\L	-ran-	4dd\	-ran-	4B-\	-ra	8a\L	-ran-	4dd\	-ran-
.	.	.	.	8g\J	.	8ee-\	.	.	.	.	.	8ee-\	.	.	.
4B-\	.	4B-\	mi-	8f\	-ra	8dd\	.	4dd\	-te	4B-\	mi-	8dd\	.	4dd\	-te
.	.	.	.	8e-\	mi-	8cc\J	.	.	.	.	.	8cc\J	.	.	.
!	!	!	!	!LO:LB:g=original	!	!	!	!	!	!	!	!	!	!	!
=17	=17	=17	=17	=17	=17	=17	=17	=17	=17	=17	=17	=17	=17	=17	=17
4B-\	.	4B-\	-ran-	4d\	-ran-	4b-\	.	2r	.	4B-\	-ran-	4b-\	.	2r	.
4BB-/	.	4BB-/	-te	4d\	-te	4b-\	-te	.	.	4BB-/	-te	4b-\	-te	.	.
!	!	!	!	!	!	!LO:LB:g=original	!	!	!	!LO:LB:g=original	!	!LO:LB:g=original	!	!	!
4B-\	.	4B-\	tu-	2r	.	4b-\	tu-	4b-\	tu-	4B-\	tu-	4b-\	tu-	4b-\	tu-
4B-\	.	4B-\	-um	.	.	4b-\	-um	4b-\	-um	4B-\	-um	4b-\	-um	4b-\	-um
!	!	!	!	!	!	!	!	!LO:LB:g=original	!	!	!	!	!	!LO:LB:g=original	!
=18	=18	=18	=18	=18	=18	=18	=18	=18	=18	=18	=18	=18	=18	=18	=18
*	*above	*	*	*	*	*	*	*	*	*	*	*	*	*	*
4E-\	6 5	4E-\	San-	4g\	San-	2b-\	San-	4cc\	San-	4E-\	San-	2b-\	San-	4cc\	San-
4F\	.	4F\	-ctum	4f\	-ctu(m)	.	.	4dd\	-ctu(m)	4F\	-ctu(m)	.	.	4dd\	-ctu(m)
4G\	.	4G\	ge-	4e-\	ge-	2b-\	-ctu(m)	4ee-\	ge-	4G\	ge-	2b-\	-ctum	4ee-\	ge-
4F\	.	4F\	-ni-	4f\	-ni-	.	.	4dd\	-ni-	4F\	-ni-	.	.	4dd\	-ni-
!LO:LB:g=original	!	!LO:LB:g=original	!	!	!	!	!	!	!	!	!	!	!	!	!
=19	=19	=19	=19	=19	=19	=19	=19	=19	=19	=19	=19	=19	=19	=19	=19
4E-\	6 5	2E-\	-to-	2g\	-to-	4b-\	ge-	4.cc\	-to-	2E-\	-to-	4b-\	ge-	4.cc\	-to-
4E-\	.	.	.	.	.	4b-\	-ni-	.	.	.	.	4b-\	-ni-	.	.
.	.	.	.	.	.	.	.	8dd\	.	.	.	.	.	8dd\	.
*	*below	*	*	*	*	*	*	*	*	*	*	*	*	*	*
2F\	4	2F\	.	2f\	.	4b-\	-to-	2cc\	.	2F\	.	(4b-\	-to-	2cc\	.
.	3	.	.	.	.	4a\	.	.	.	.	.	4a\)	.	.	.
=20	=20	=20	=20	=20	=20	=20	=20	=20	=20	=20	=20	=20	=20	=20	=20
!LO:TX:a:t=Soli	!	!	!	!	!	!	!	!	!	!	!	!	!	!LO:TX:a:t=Solo	!
4BB-/	.	4BB-/	-rem	4d\	-rem	4b-\	-rem	4b-\	-rem	4BB-/	-rem	4b-/	-rem	4b-\	-rem
!	!	!	!	!	!	!	!	!	!	!	!	!LO:TX:a:t=Solo	!	!	!
!	!	!	!	!	!	!	!	!	!	!	!	!LO:N:vis=8	!	!	!
4F\	.	4r	.	4r	.	4r	.	4r	.	4r	.	16dd\LL	Vir-	16ff\LL	Vir-
!	!	!	!	!	!	!	!	!	!	!	!	!LO:N:vis=8	!	!	!
.	.	.	.	.	.	.	.	.	.	.	.	16b-\JJ	.	16dd\JJ	.
!	!	!	!	!	!	!	!	!	!	!	!	!LO:N:vis=8	!	!	!
.	.	.	.	.	.	.	.	.	.	.	.	16cc\LL	-go	16ee-\LL	-go
!	!	!	!	!	!	!	!	!	!	!	!	!LO:N:vis=8	!	!	!
.	.	.	.	.	.	.	.	.	.	.	.	16a\JJ	.	16cc\JJ	.
!	!	!	!	!	!	!	!	!	!	!	!	!LO:LB:g=original	!	!	!
4B-\	.	2r	.	2r	.	2r	.	2r	.	2r	.	8.b-\L	pri-	8.dd\L	pri-
.	.	.	.	.	.	.	.	.	.	.	.	16a\Jk	.	16cc\Jk	.
4r	.	.	.	.	.	.	.	.	.	.	.	4b-\	-uſ	4dd\	-uſ
!	!	!	!	!LO:LB:g=original	!	!LO:LB:g=original	!	!	!	!LO:LB:g=original	!	!	!	!LO:PB:g=original	!
=21	=21	=21	=21	=21	=21	=21	=21	=21	=21	=21	=21	=21	=21	=21	=21
!	!	!LO:TX:b:t=8	!	!LO:TX:b:t=8	!	!LO:TX:b:t=8	!	!LO:TX:b:t=8	!	!LO:TX:a:t=Solo	!	!	!	!	!
4B-\	.	00r	.	00r	.	00r	.	00r	.	2r	.	8f\L	ac	8dd\L	ac
.	.	.	.	.	.	.	.	.	.	.	.	8d\J	.	8b-\J	.
4F\	.	.	.	.	.	.	.	.	.	.	.	8e-X\L	po-	8cc\L	po-
.	.	.	.	.	.	.	.	.	.	.	.	8c\J	.	8a\J	.
4BB-/	.	.	.	.	.	.	.	.	.	4B-\	Ga-	8.d\	-ste-	8.b-\	-ste-
.	.	.	.	.	.	.	.	.	.	.	.	16c\	-ri-	16a\	-ri-
4B-\	.	.	.	.	.	.	.	.	.	4B-\	-bri-	4d\	-us	4b-\	-us
!LO:LB:g=original	!	!	!	!	!	!	!	!	!	!	!	!	!	!	!
=22	=22	=22	=22	=22	=22	=22	=22	=22	=22	=22	=22	=22	=22	=22	=22
!	!	!	!	!	!	!	!	!	!	!	!	!LO:TX:b:t=1	!	!LO:TX:b:t=1	!
8A\L	.	.	.	.	.	.	.	.	.	8An\L	-e-	1r	.	1r	.
8G\	.	.	.	.	.	.	.	.	.	8G\J	.	.	.	.	.
8F\	.	.	.	.	.	.	.	.	.	8F\	-lis	.	.	.	.
8E-X\J	.	.	.	.	.	.	.	.	.	8E-X\	ab	.	.	.	.
8.D\L	.	.	.	.	.	.	.	.	.	8.D/L	o-	.	.	.	.
16C\Jk	.	.	.	.	.	.	.	.	.	16C/Jk	.	.	.	.	.
4BB-\	.	.	.	.	.	.	.	.	.	4BB-/	-re	.	.	.	.
!	!	!	!	!	!	!	!	!	!	!	!	!LO:PB:g=original	!	!	!
=23	=23	=23	=23	=23	=23	=23	=23	=23	=23	=23	=23	=23	=23	=23	=23
2BBn/	5	.	.	.	.	.	.	.	.	4.BBn/	Su-	4.dd\	Sum-	4.ff\	Su-
.	.	.	.	.	.	.	.	.	.	8BB/	-men	8dd\	-mens	8ff\	-menſ
!	!	!	!	!	!	!	!	!	!	!LO:LB:g=original	!	!	!	!	!
2C/	4	.	.	.	.	.	.	.	.	4C/	il-	4dd\	il-	8ff\L	il-
.	n3	.	.	.	.	.	.	.	.	.	.	.	.	8een\J	.
.	.	.	.	.	.	.	.	.	.	4C/	-lud	4cc\	-lud	4ee\	-lud
!	!	!	!	!	!	!	!	!	!	!	!	!	!	!LO:LB:g=original	!
=24	=24	=24	=24	=24	=24	=24	=24	=24	=24	=24	=24	=24	=24	=24	=24
2F\	-7	.	.	.	.	.	.	.	.	4.F\	il-	4.cc\	il-	4.ee-X\	il-
.	.	.	.	.	.	.	.	.	.	8F\	-lud	8cc\	-lud	8ee-\	-lud
4B-\	4 9	.	.	.	.	.	.	.	.	4B-\	a-	4cc\	a-	8ee-\L	a-
.	.	.	.	.	.	.	.	.	.	.	.	.	.	8dd\J	.
4BB-/	3 8	.	.	.	.	.	.	.	.	4BB-/	-ue	4b-\	-ue	4dd\	-ue
!LO:PB:g=original	!	!	!	!	!	!	!	!	!	!	!	!	!	!	!
=25	=25	=25	=25	=25	=25	=25	=25	=25	=25	=25	=25	=25	=25	=25	=25
!	!	!	!	!	!	!	!	!	!	!	!	!LO:TX:b:t=1	!	!LO:TX:b:t=1	!
4.B-\	.	00r	.	00r	.	00r	.	00r	.	4.B-\	Su-	1r	.	1r	.
8B-\	.	.	.	.	.	.	.	.	.	8B-\	-menſ	.	.	.	.
8A\L	.	.	.	.	.	.	.	.	.	8A\L	il-	.	.	.	.
8G\	.	.	.	.	.	.	.	.	.	8G\J	.	.	.	.	.
8F\	.	.	.	.	.	.	.	.	.	8F\L	-lud	.	.	.	.
8E-\J	.	.	.	.	.	.	.	.	.	8E-\J	.	.	.	.	.
!	!	!	!	!	!	!	!	!	!	!LO:LB:g=original	!	!	!	!	!
=26	=26	=26	=26	=26	=26	=26	=26	=26	=26	=26	=26	=26	=26	=26	=26
8D\L	.	.	.	.	.	.	.	.	.	8D/L	a-	2b-\	mi-	4.b-\	mi-
8C\J	.	.	.	.	.	.	.	.	.	8C/J	.	.	.	.	.
4BB-/	.	.	.	.	.	.	.	.	.	4BB-/	-ue	.	.	.	.
.	.	.	.	.	.	.	.	.	.	.	.	.	.	8ee-\	.
*	*above	*	*	*	*	*	*	*	*	*	*	*	*	*	*
2AAn/	-5	.	.	.	.	.	.	.	.	2r	.	2cc\	-se-	2ee-\	-ſe-
!	!	!	!	!	!	!	!	!	!	!	!	!LO:LB:g=original	!	!	!
=27	=27	=27	=27	=27	=27	=27	=27	=27	=27	=27	=27	=27	=27	=27	=27
4BB-/	.	.	.	.	.	.	.	.	.	2r	.	8a\L	-re-	8cc-\L	-re-
.	.	.	.	.	.	.	.	.	.	.	.	8b-\J	.	8dd\J	.
4B-\	.	.	.	.	.	.	.	.	.	.	.	4b-\	-re	4dd\	-re
!	!	!	!	!	!	!	!	!	!	!	!	!	!	!LO:LB:g=original	!
4B-\	.	.	.	.	.	.	.	.	.	4B-\	mi-	4b-\	mi-	4dd\	mi-
4E-\	.	.	.	.	.	.	.	.	.	4E-\	-se-	8b-\L	-se-	8ee-\L	-se-
.	.	.	.	.	.	.	.	.	.	.	.	8g\J	.	8cc-\J	.
!LO:LB:g=original	!	!	!	!	!	!	!	!	!	!	!	!	!	!	!
=28	=28	=28	=28	=28	=28	=28	=28	=28	=28	=28	=28	=28	=28	=28	=28
8B-\L	.	.	.	.	.	.	.	.	.	8B-\L	-re-	4f\	-re-	8b-\L	.
8E-\	.	.	.	.	.	.	.	.	.	8E-\	.	.	.	8gg\J	.
8D\	.	.	.	.	.	.	.	.	.	8D\	.	8b-\L	.	16ff\LL	.
.	.	.	.	.	.	.	.	.	.	.	.	.	.	16ee-\	.
8E-\J	.	.	.	.	.	.	.	.	.	8E-\J	.	8g\J	.	16dd\	.
.	.	.	.	.	.	.	.	.	.	.	.	.	.	16cc\JJ	.
*	*below	*	*	*	*	*	*	*	*	*	*	*	*	*	*
2F\	4	.	.	.	.	.	.	.	.	2F\	.	4b-\	.	4b-\	re-
.	3	.	.	.	.	.	.	.	.	.	.	4a\	.	4cc\	-re
!	!	!	!	!	!	!	!	!LO:LB:g=original	!	!LO:PB:g=original	!	!	!	!	!
=29	=29	=29	=29	=29	=29	=29	=29	=29	=29	=29	=29	=29	=29	=29	=29
!LO:TX:b:t=tutti	!	!	!	!	!	!	!	!	!	!	!	!	!	!	!
.	.	.	.	.	.	.	.	.	.	.	.	.	.	4qqb-/	.
2B-\	.	2B-\	pec-	2f\	pec-	2b-\	mi-	2dd\	mi-	4BB-/	-re	4b-\	-re	2dd\	mi-
!	!	!	!	!	!	!	!	!	!	!	!	!LO:TX:a:t=tutti	!	!	!
.	.	.	.	.	.	.	.	.	.	4B-\	pec-	4b-\	mi-	.	.
!	!	!	!	!	!	!	!	!	!	!	!	!LO:LB:g=original	!	!	!
2B-\	.	2B-\	-ca-	2g\	-ca-	2b-\	-se-	2ee-\	-se-	2B-\	-ca-	2b-\	-se-	2dd\	-se-
!	!	!LO:LB:g=original	!	!	!	!	!	!	!	!	!	!	!	!	!
=30	=30	=30	=30	=30	=30	=30	=30	=30	=30	=30	=30	=30	=30	=30	=30
4B-\	4	4B-\	-to-	4g\	-to-	4b-\	-re-	4ee-\	-re-	4B-\	-to-	4b-\	-re-	4ee-\	-re-
.	3	.	.	.	.	.	.	.	.	.	.	.	.	.	.
4B-\	.	4B-\	-rum	4f\	-rum	4b-\	-re	4dd\	-re	4B-\	-rum	4b-\	-re	4dd\	-re
!	!	!	!	!	!	!	!	!	!	!	!	!	!	!LO:LB:g=original	!
4E-\	.	4E-\	mi-	4e-X\	mi-	4g\	mi-	4cc\	mi-	4E-\	mi-	4g\	mi-	4cc\	mi-
4E-\	.	4E-\	-se-	4e-\	-se-	4g\	-se-	4b-\	-se-	4E-\	-se-	4g\	-se-	4b-\	-se-
=31	=31	=31	=31	=31	=31	=31	=31	=31	=31	=31	=31	=31	=31	=31	=31
4F\	.	4F\	-re-	4e-\	-re-	1f	-re-	4a\	-re-	4F\	-re-	1f	-re-	4a\	-re-
4B-\	.	4B-\	.	4d\	.	.	.	2b-\	.	4B-\	.	.	.	2b-\	.
!LO:LB:g=original	!	!	!	!	!	!	!	!	!	!	!	!	!	!	!
2F\	4	2F\	.	2c\	.	.	.	.	.	2F\	.	.	.	.	.
.	3	.	.	.	.	.	.	4a\	.	.	.	.	.	4a\	.
!	!	!	!	!LO:LB:g=original	!	!LO:LB:g=original	!	!	!	!	!	!	!	!	!
=32	=32	=32	=32	=32	=32	=32	=32	=32	=32	=32	=32	=32	=32	=32	=32
4BB-/	.	4BB-/	-re	4d\	-re	4f\	-re	4b-\	-re	4BB-/	-re	4f\	-re	4b-\	-re
4r	.	4r	.	4r	.	4r	.	4r	.	4r	.	4r	.	4r	.
!	!	!	!	!	!	!	!	!LO:LB:g=original	!	!LO:LB:g=original	!	!	!	!	!
4E-\	.	4E-\	mi-	4e-\	mi-	4g\	mi-	4b-\	mi-	4E-\	mi-	4g\	mi-	4b-\	mi-
4BB-/	.	4BB-/	-se-	4d\	-se-	4f\	-se-	4b-\	-se-	4BB-/	-se-	4f\	-se-	4b-\	-se-
!	!	!LO:LB:g=original	!	!	!	!	!	!	!	!	!	!LO:LB:g=original	!	!	!
=33	=33	=33	=33	=33	=33	=33	=33	=33	=33	=33	=33	=33	=33	=33	=33
2E-\	.	2E-\	-re-	2e-\	-re-	2g\	-re-	2b-\	-re-	2E-\	-re-	2g\	-re-	2b-\	-re-
2BB-/	.	2BB-/	-re	2d\	-re	2f\	-re	2b-\	-re	2BB-/	-re	2f\	-re	2b-\	-re
==	==	==	==	==	==	==	==	==	==	==	==	==	==	==	==
*-	*-	*-	*-	*-	*-	*-	*-	*-	*-	*-	*-	*-	*-	*-	*-
!!!system-decoration: [g1][g2]s8
!!!RDF**kern: < = below
!!!ENC: Marta Lawrence
!!!END: 2021-02-20
!!!ENC: Marcin Jachim
!!!END: 2021-02-02
